X:1
T:Title
%%score { ( 1 4 ) | ( 2 3 ) }
L:1/8
Q:1/4=189
M:6/4
K:Eb
V:1 treble nm="Grand Piano"
V:4 treble 
V:2 bass 
V:3 bass 
V:1
 G2 _G2 =G2 c2 B2 [EG]2 | z6 .E6 | [CA]2 .B4 [GB]2 e2 [B,EG]2 | .[EG]6 z6 | %4
w: Chas.~H.~Gabriel * * * * *||||
 G2 _G2 =G2 c2 B2 [EG]2 | [A,DF]2 E2 F2 G6 | =A2 G2 F2 e2 d2 c2 | B12 | .[Ge]12 | [GB]6 z6 | %10
w: ||||||
 [DB]2 [DF]2 [EG]2 [FA]2 [GB]2 [DAc]2 | [EAc]2 [EGB]2 [B,EG]2 .[EGB]6 | .[Ge]12 | [GB]6 z6 | %14
w: ||||
 [DB]2 [A,DF]2 [B,DG]2 [CDA]2 [B,DG]2 [A,DF]2 | [G,E]12 |] %16
w: ||
V:2
 [E,E]2- [E,-=A,E]2 [E,B,]2 _A,2 G,2 B,2 | z2 G,2 B,2 E,2 F,2 G,2 | %2
 z2[K:treble] E2 c2[K:bass] z2 G2 E,2 | z2 F2 F,2 B,,2 C,2 D,2 | %4
 [E,E]2- [E,-=A,E]2 [E,B,]2 _A,2 G,2 B,2 | z2 G,2 [B,D]2 [E,B,E]6 | %6
 [F,E]6[K:treble] [F,=A,G]2 [G,B,F]2 [A,CE]2 | D2 D2 E2[K:bass] B,,6 | %8
 [E,B,]2 E,2 E,2 E,2[K:treble] G2 A2 | E,2 E,2 E,2 [E,B,E]4 [E,G,E]2 | %10
 [B,,F,]2 [B,,B,]2 [B,,B,]2 [B,,B,]2 [B,,B,]2 B,,2 | E,2 E,2 E,2 z2[K:treble] =ABcd | %12
 [E,B,]2 E,2 E,2 E,2[K:treble] G2 A2 | E,2 E,2 E,2 [E,B,E]4 [E,G,E]2 | %14
 [B,,F,]2 B,,2 B,,2 B,,2 B,,2 B,,2 | E,12 |] %16
V:3
 .B,6 .[E,E]6 | B,,6 z6 | A,6[K:treble][K:bass] .E,6 | .C,6 z6 | .B,6 .[E,E]6 | B,,6 z6 | %6
 x6[K:treble] x6 | B,12[K:bass] | x8[K:treble] x4 | x12 | x12 | z6 .E,6[K:treble] | %12
 x8[K:treble] x4 | x12 | x12 | x12 |] %16
V:4
 x12 | [A,DF]2 E2 [DF]2 [B,G]4- [B,_DG]2 | x12 | =A,4- [A,E]2 [B,DF]6 | x12 | x12 | x12 | %7
 z2 F2 G2 [DA]6 | z2 B,2 B,2 B,2 B2 c2 | E2 E2 E2 G4 B2 | x12 | x12 | z2 B,2 B,2 B,2 B2 c2 | %13
 E2 E2 E2 G4 B2 | x12 | x12 |] %16

